X:898
T:Reel 898
M:4/4
K:Gmaj
L:1/8
Bc|d>G (3GFG D>G (3GFG |dGBG c2Bc|d>G (3GGG GcBG|AFDE FGFE|D>G (3GGG EGDc|dGBG c2BA|GFGA Bcdf|ecAF G2|Bd|dggf gagf|dggf g2dg|dcBA BcBc|ABcd edef|gfga gfed|BABc defg|afge fdec|dcBA GcBA|
